Origami/24x24/apps/k4dirstat.svg

<svg width="24" height="24" version="1" xmlns="http://www.w3.org/2000/svg">
 <rect transform="matrix(0,-1,-1,0,0,0)" x="-22" y="-22" width="20" height="20" rx="10" ry="10" style="fill:#ba9e7b"/>
 <path d="m12 4.5c-4.432 0-8 3.568-8 8s3.568 8 8 8v-2a6 6 0 0 1 -6 -6 6 6 0 0 1 6 -6v-2z" style="opacity:.2"/>
 <path d="m12 4c-4.432 0-8 3.568-8 8s3.568 8 8 8v-2a6 6 0 0 1 -6 -6 6 6 0 0 1 6 -6v-2z" style="fill:#ffffff"/>
 <path d="m2.0058 12.25c-2e-3 0.084-0.0058 0.166-0.0058 0.25 0 5.54 4.46 10 10 10s10-4.46 10-10c0-0.084-4e-3 -0.1665-6e-3 -0.25-0.132 5.423-4.538 9.75-9.994 9.75s-9.862-4.327-9.994-9.75z" style="opacity:.2"/>
 <path d="m12 4v2a6 6 0 0 1 6 6 6 6 0 0 1 -6 6v2c4.432 0 8-3.568 8-8s-3.568-8-8-8z" style="fill:#ffffff;opacity:.5"/>
 <path d="m16 12.5c0 2.2092-1.7908 4-4 4s-4-1.7908-4-4z" style="opacity:.2"/>
 <path d="m16 12c0 2.2092-1.7908 4-4 4s-4-1.7908-4-4z" style="fill:#ffffff"/>
 <path d="m16 12c0-2.2092-1.791-4-4-4-2.2092 0-4 1.7908-4 4z" style="fill:#ffffff;opacity:.5"/>
 <path d="m12 2c-5.54 0-10 4.46-10 10 0 0.084 0.0097 0.166 0.0117 0.25 0.1331-5.4224 4.5327-9.75 9.9883-9.75s9.8552 4.3276 9.9883 9.75c2e-3 -0.084 0.012-0.166 0.012-0.25 0-5.54-4.46-10-10-10z" style="fill:#ffffff;opacity:.2"/>
</svg>

<svg xmlns="http://www.w3.org/2000/svg" width="24" height="24" version="1">
 <rect style="fill:#ba9e7b" width="20" height="20" x="-22" y="-22" rx="10" ry="10" transform="matrix(0,-1,-1,0,0,0)"/>
 <path style="opacity:0.2" d="m 12,4.5 c -4.432,0 -8,3.568 -8,8 0,4.432 3.568,8 8,8 l 0,-2 a 6,6 0 0 1 -6,-6 6,6 0 0 1 6,-6 l 0,-2 z"/>
 <path style="fill:#ffffff" d="m 12,4 c -4.432,0 -8,3.568 -8,8 0,4.432 3.568,8 8,8 l 0,-2 A 6,6 0 0 1 6,12 6,6 0 0 1 12,6 l 0,-2 z"/>
 <path style="opacity:0.2" d="M 2.0058,12.25 C 2.0038,12.334 2,12.416 2,12.5 c 0,5.54 4.46,10 10,10 5.54,0 10,-4.46 10,-10 0,-0.084 -0.004,-0.1665 -0.006,-0.25 C 21.862,17.673 17.456,22 12,22 6.544,22 2.138,17.673 2.006,12.25 Z"/>
 <path style="opacity:0.5;fill:#ffffff" d="m 12,4 0,2 a 6,6 0 0 1 6,6 6,6 0 0 1 -6,6 l 0,2 c 4.432,0 8,-3.568 8,-8 0,-4.432 -3.568,-8 -8,-8 z"/>
 <path style="opacity:0.2" d="m 16,12.5 c 0,2.2092 -1.7908,4 -4,4 -2.2092,0 -4,-1.7908 -4,-4 z"/>
 <path style="fill:#ffffff" d="m 16,12 c 0,2.2092 -1.7908,4 -4,4 -2.2092,0 -4,-1.7908 -4,-4 z"/>
 <path style="opacity:0.5;fill:#ffffff" d="M 16,12 C 16,9.7908 14.209,8 12,8 9.7908,8 8,9.7908 8,12 Z"/>
 <path style="opacity:0.2;fill:#ffffff" d="M 12,2 C 6.46,2 2,6.46 2,12 2,12.084 2.0097,12.166 2.0117,12.25 2.1448,6.8276 6.5444,2.5 12,2.5 c 5.4556,0 9.8552,4.3276 9.9883,9.75 0.002,-0.084 0.012,-0.166 0.012,-0.25 0,-5.54 -4.46,-10 -10,-10 z"/>
</svg>
